X: 7
T: The Ballydesmond
R: polka
M: 2/4
L: 1/8
K: Ador
|: EA A>B | cd e/f/g | G2 G>A | GE F/E/D |
EA A>B | cd ef | ge dB |1A2 A/B/A/G/ :|2A2 A2||
|: a2 a>b | ag ef | g2 g>a | ge f/e/d |
ea a>b | ag ef | ge dB |1 A2 A2 :|2 A2 A/B/A/G/|


Tune 238	Setting 12942

